X:9
T:The Scattery Island Slide
R:slide
M:12/8
Z:Richard Robinson 
K:D
FGA d2B FGA dcd | e2A cBA e2A cBA | FGA d2B FGA dcd |1
e2A cBA f2e d3 :|2 e2A cBA f2e dfg |:a2a faf d3 def | g2g fgf e3 efg |
a2a faf d3 def |1 e2A cBA f2e dfg :|2 e2A cBA f2e d3 |]
